icon/lg/drizzle-icon.svg

<?xml version="1.0" encoding="UTF-8"?>
<svg viewBox="0 0 256 217" version="1.1" xmlns="http://www.w3.org/2000/svg" xmlns:xlink="http://www.w3.org/1999/xlink" preserveAspectRatio="xMidYMid" height="1em" width="1em">
  <defs>
    <radialGradient cx="49.9898959%" cy="50%" fx="49.9898959%" fy="50%" r="55.430803%" gradientTransform="translate(0.499899,0.500000),scale(0.827928,1.000000),translate(-0.499899,-0.500000)" id="drizzle-radialGradient-1">
      <stop stop-color="#5E464D" offset="0%"/>
      <stop stop-color="#5E464D" offset="100%"/>
    </radialGradient>
  </defs>
  <g>
    <path d="M252.197636,121.241942 C252.197636,56.9897444 191.9806,4.58436902 127.728403,4.58436902 C63.4762049,4.58436902 3.23330302,57.1578761 3.23330302,121.410074 C3.23330302,121.578206 0,180.527786 0,180.527786 C0.672527028,199.513742 64.1228655,216.533849 127.9612,216.533849 C192.226331,216.533849 256,199.513742 256,180.527786 C255.948267,180.527786 252.197636,121.901536 252.197636,121.241942 Z" fill="url(#drizzle-radialGradient-1)"/>
    <path d="M58.6779832,132.261039 C58.269514,125.192395 57.3401114,118.163518 55.8973426,111.231636 C54.5333908,104.577771 52.7097463,98.0264791 50.4395271,91.6248864 C49.275538,88.495049 48.111549,85.4169446 46.7664949,82.455239 C45.4214408,79.4935334 41.9812064,70.6730828 41.4638779,69.1986966 C40.9465495,67.7243104 40.2869556,66.2887239 39.6144286,64.8790038 C38.3166385,62.0522536 36.8748504,59.2938627 35.2947358,56.6146812 L35.0748712,56.2396181 C32.7748054,52.2040525 33.1776657,47.1722091 36.0905093,43.5540004 C39.0033529,39.9357917 43.8331472,38.4678573 48.2667475,39.8532384 L49.5600687,40.2671012 L50.7111246,40.6550975 L53.0261695,41.3922906 C54.4876225,41.9354855 55.9232091,42.4786804 57.3458624,43.0477418 C60.1739248,44.2031087 62.9588764,45.4231417 65.7007174,46.7078408 C71.1804119,49.2878699 76.5205856,52.1543819 81.6991007,55.2954936 C92.1406291,61.6012576 101.822246,69.087044 110.553097,77.6052845 C118.744392,85.6105932 125.893377,94.6121615 131.833775,104.396354 C132.300705,105.165417 131.23429,106.065615 131.27664,104.930697 C131.638324,95.2379431 130.891295,85.531804 129.04759,76.0015662 C126.986119,65.4256135 123.441937,55.1936386 118.519956,45.6085178 C113.548842,35.9937834 107.315987,27.0859769 99.9866626,19.1212994 L99.8314641,18.9661009 C96.6249513,15.4517394 95.9555313,10.3084932 98.1556297,6.09043344 C100.355728,1.87237372 104.956651,-0.521913597 109.673638,0.0965444314 L110.643629,0.225876552 L111.432555,0.342275461 L112.945741,0.600939703 C113.928665,0.76907146 114.898656,0.950136429 115.855714,1.15706782 C117.756896,1.54506418 119.632212,1.9847934 121.481661,2.45038903 C125.193493,3.39451351 128.827726,4.48090333 132.410225,5.69662526 C153.900097,12.9978921 173.623698,24.7166275 190.312216,40.0989694 C201.374165,50.343032 210.98215,62.0527645 218.868748,74.9022431 C219.918068,76.6173407 220.93988,78.3481788 221.933871,80.0940801 C221.968648,80.1551654 221.930986,80.3120081 221.921651,80.1127252 C221.751389,76.4778758 221.237595,72.858035 220.381934,69.3021623 C219.38932,65.3554272 218.00731,61.5169928 216.256239,57.8433364 C214.42713,54.0374393 212.263065,50.4018097 209.789633,46.9794382 C207.195161,43.4441048 204.351225,40.0988064 201.27958,36.9691321 C198.109426,33.7721154 194.767721,30.7499016 191.269274,27.9158836 C195.562545,29.5263398 199.737324,31.436539 203.762756,33.6323634 C207.90901,35.8466499 211.863073,38.40338 215.583712,41.2758917 C219.428018,44.2360593 222.967663,47.5720775 226.150147,51.234465 C229.449608,54.9990184 232.325127,59.1149573 234.724866,63.5080833 C239.640122,72.6351645 242.575167,82.6962871 243.338385,93.0346065 C243.593596,95.6149538 243.593596,98.2141864 243.338385,100.794534 C243.001094,103.370672 242.504367,105.923414 241.851066,108.438062 C241.269071,111.024704 240.66121,113.469082 239.898151,115.965191 C239.523088,117.258513 239.109225,118.461301 238.60483,119.715823 L237.971102,121.578206 L237.55724,122.574063 L237.026978,123.776852 C235.169338,128.062974 230.861571,130.760211 226.194522,130.559416 C221.527472,130.358621 217.467287,127.301361 215.984642,122.871527 L215.881176,122.535263 C211.798811,110.041505 206.273506,98.0663944 199.417197,86.8525311 C192.636316,75.7975437 184.372748,65.7237371 174.857027,56.9121451 C163.671582,46.5712071 150.889771,38.1518519 137.032502,31.9642955 C136.840899,31.8787409 138.172078,34.0332757 138.760432,35.1714156 C144.651043,46.6553455 148.895974,58.9112224 151.370314,71.5784076 C153.844404,84.1526631 154.696317,96.9922135 153.905224,109.783116 C153.511263,116.144214 152.733858,122.475748 151.577246,128.743205 C150.982318,131.885976 150.283924,135.00288 149.507932,138.132717 C149.119935,139.697636 148.693139,141.262554 148.21461,142.840406 L147.464484,145.220117 L147.063555,146.513438 L146.559159,147.936092 C144.889425,152.644717 140.329617,155.701309 135.339684,155.45688 C130.349752,155.212451 126.110508,151.724842 124.908962,146.875568 L124.831363,146.552238 C122.445003,136.60022 118.638064,127.043671 113.527736,118.176771 C108.351934,109.256058 101.98162,101.084303 94.5935132,93.8881985 C87.0980418,86.6045173 78.7924547,80.2039211 69.8393453,74.8117106 C68.5487864,74.0272484 67.2466513,73.2624053 65.9333932,72.5174254 C66.085401,72.5214417 66.3708453,72.1920253 66.4056755,72.4671004 C66.6156158,74.125126 66.7629798,75.7954109 66.9293725,77.4371527 C67.2397696,81.3171163 67.4079014,85.1194807 67.3561685,88.921845 C67.2515923,96.4132548 66.4724516,103.880019 65.0281904,111.231636 C64.3039305,114.852935 63.4374053,118.422502 62.3639487,121.927402 C61.3713534,125.451645 60.1398477,128.904182 58.6779832,132.261039 Z" fill="#FFFFFF"/>
    <path d="M58.6779832,132.261039 C59.234154,125.283859 59.234154,118.273482 58.6779832,111.296302 C58.1500118,104.407036 57.1256282,97.5648459 55.612812,90.8230272 C54.8454414,87.4862585 53.9487387,84.1926005 52.9227038,80.9420532 C51.8880469,77.7087502 50.6335253,74.5659796 49.5730019,71.3714762 C49.0556734,69.7677579 48.4995453,68.1769728 47.9175508,66.599121 C47.3355562,65.0212691 46.6242296,63.4822169 45.9258361,61.969031 C44.5549156,58.9038598 42.9253309,55.9680206 41.2698798,53.0580479 L41.1922805,52.9287158 C40.6138513,51.9152511 40.4617563,50.7133756 40.7698342,49.5877999 C41.077912,48.4622242 41.8207711,47.5052703 42.8347984,46.9277054 C43.8887943,46.3163416 45.1510445,46.1755702 46.3138325,46.539709 C49.3272709,47.4579671 51.9527129,48.4538244 54.7074871,49.5531474 C57.4622613,50.6524705 60.0747701,51.8164596 62.7002122,53.0451147 C67.9536302,55.5260227 73.0735665,58.2802549 78.0390017,61.296504 C88.0410415,67.3092035 97.3152366,74.4568869 105.677276,82.5975043 C114.074866,90.7786554 121.315432,100.068685 127.198141,110.209912 C130.552917,116.045083 133.416014,122.139745 135.76217,128.43029 C135.783036,128.393818 135.486158,128.088305 135.501324,128.145655 C135.656647,127.38846 135.807174,126.630246 135.953925,125.872032 C136.994016,120.232927 137.693675,114.53632 138.049106,108.813125 C138.790778,97.3772266 138.060544,85.8934254 135.876326,74.6435789 C133.688863,63.4292811 129.93144,52.5793402 124.714964,42.4140144 C119.455977,32.2487495 112.862024,22.8319237 105.108215,14.4136102 C103.847956,13.0395835 103.587903,11.0214961 104.458659,9.37286448 C105.329415,7.72423289 107.14283,6.80128718 108.988178,7.06754574 C111.031626,7.32620999 112.725877,7.64954029 114.549459,8.02460344 C116.373042,8.39966659 118.119026,8.80059616 119.877943,9.31792465 C123.395776,10.1801388 126.844633,11.2104847 130.224512,12.4089623 C150.773264,19.3754002 169.634231,30.5703826 185.591593,45.2722542 C196.184417,55.0860714 205.383472,66.3042195 212.932404,78.614075 C218.184953,87.1911659 222.721807,96.1781261 226.500632,105.483239 C228.124273,109.481351 225.933716,107.31161 226.331211,105.217692 C227.094271,101.053198 227.534,96.8628372 227.921997,92.6466101 C228.605092,84.144684 227.521867,75.5933733 224.740426,67.5303122 C221.821359,59.3260282 217.336734,51.7667338 211.535617,45.2722542 C205.572366,38.6211192 198.742955,32.800895 191.230474,27.9676165 C199.419926,31.9169253 207.016411,36.9928574 213.798929,43.0477418 C220.735869,49.2922504 226.355386,56.8596913 230.327574,65.3057998 C234.278105,73.9755811 236.400148,83.366282 236.561382,92.8923411 C236.632633,95.2754569 236.541892,97.6606602 236.289785,100.031474 C236.018187,102.398252 235.565525,104.739163 235.074063,107.067142 C234.582601,109.39512 233.987673,111.697232 233.28928,113.98641 C232.944394,115.124533 232.569331,116.262655 232.16409,117.400778 C231.737294,118.564767 231.349298,119.599424 230.75437,120.905679 C230.005591,122.550002 228.329597,123.571288 226.524976,123.48291 C224.720354,123.394532 223.152173,122.214368 222.567647,120.504749 L222.567647,120.414216 C218.322476,107.401042 212.566732,94.9302634 205.418208,83.2570981 C198.275898,71.6267927 189.572712,61.0306635 179.551783,51.7647267 C164.49794,37.8772862 146.697752,27.3029165 127.301607,20.7250177 C124.839854,19.8911983 122.347627,19.1183282 119.842467,18.4297972 C119.083635,18.2212358 117.378434,15.0267771 120.015537,18.4998599 C124.763259,24.7526407 128.971725,31.4068906 132.59129,38.3917854 C138.18534,49.2963935 142.216926,60.9340055 144.567445,72.9622613 C146.886393,84.9585464 147.664363,97.2017998 146.88249,109.39512 C146.504686,115.47042 145.75749,121.517097 144.645044,127.501617 C144.088916,130.489189 143.442255,133.476761 142.692129,136.438466 C142.304133,137.925786 141.903203,139.400172 141.463474,140.887491 C141.023745,142.374811 140.584015,143.784531 139.989088,145.414115 C139.314339,147.227893 137.538837,148.392437 135.6064,148.288702 C133.673963,148.184967 132.033333,146.837041 131.556633,144.961453 L131.556633,144.857987 C129.003753,134.26285 124.94451,124.088609 119.50288,114.646004 C114.02478,105.201327 107.280058,96.5506763 99.4564009,88.9347782 C91.5956344,81.2731345 82.8820664,74.5383449 73.4865111,68.8624331 C68.7846482,66.0228142 63.9366125,63.4325903 58.9625139,61.1025058 C57.4107179,60.3751015 55.8488203,59.6746347 54.2768211,59.0011056 C54.2702954,59.0174015 54.2882663,58.9333865 54.2823032,58.9485909 C55.718219,62.0449767 57.0251998,65.2013866 58.1994544,68.4097707 C59.3634012,71.873182 60.2287736,75.4298626 60.7860968,79.040871 C61.4198242,82.6233707 61.8724866,86.2188037 62.1958169,89.8142367 C62.7971476,96.9666193 62.7971476,104.156852 62.1958169,111.309235 C61.9199084,114.87018 61.4888013,118.400946 60.9024957,121.901536 C60.363497,125.395101 59.6207257,128.85417 58.6779832,132.261039 Z" fill="#E911BD"/>
  </g>
</svg>

<svg width="256" height="217" xmlns="http://www.w3.org/2000/svg" preserveAspectRatio="xMidYMid"><defs><radialGradient cx="49.99%" cy="50%" fx="49.99%" fy="50%" r="55.431%" gradientTransform="matrix(.82793 0 0 1 .086 0)" id="a"><stop stop-color="#5E464D" offset="0%"/><stop stop-color="#5E464D" offset="100%"/></radialGradient></defs><path d="M252.198 121.242c0-64.252-60.217-116.658-124.47-116.658C63.476 4.584 3.233 57.158 3.233 121.41c0 .168-3.233 59.118-3.233 59.118.673 18.986 64.123 36.006 127.961 36.006 64.265 0 128.039-17.02 128.039-36.006-.052 0-3.802-58.626-3.802-59.286Z" fill="url(#a)"/><path d="M58.678 132.261a143.96 143.96 0 0 0-2.78-21.03 146.947 146.947 0 0 0-5.458-19.606c-1.164-3.13-2.328-6.208-3.674-9.17-1.345-2.961-4.785-11.782-5.302-13.256-.517-1.475-1.177-2.91-1.85-4.32a91.05 91.05 0 0 0-4.32-8.264l-.22-.375a11.304 11.304 0 0 1 13.193-16.387l1.293.414 1.151.388 2.315.737c1.462.543 2.897 1.087 4.32 1.656a181.219 181.219 0 0 1 8.355 3.66c5.48 2.58 10.82 5.446 15.998 8.587a159.079 159.079 0 0 1 28.854 22.31 136.549 136.549 0 0 1 21.28 26.791c.468.77-.599 1.67-.556.535a127.315 127.315 0 0 0-2.23-28.93A114.485 114.485 0 0 0 118.52 45.61 121.572 121.572 0 0 0 99.987 19.12l-.156-.155a11.33 11.33 0 0 1 9.843-18.87l.97.13.789.116 1.513.259c.983.168 1.953.35 2.91.556 1.9.388 3.776.828 5.626 1.293 3.711.945 7.346 2.03 10.928 3.247a162.622 162.622 0 0 1 57.902 34.402 165.248 165.248 0 0 1 28.557 34.803 191.412 191.412 0 0 1 3.065 5.192c.035.061-.003.218-.012.019a57.759 57.759 0 0 0-1.54-10.81 61.484 61.484 0 0 0-4.126-11.46 71.197 71.197 0 0 0-6.466-10.864 91.994 91.994 0 0 0-8.51-10.01 124.159 124.159 0 0 0-10.01-9.053 97.866 97.866 0 0 1 12.493 5.716 84.415 84.415 0 0 1 11.82 7.644 73.008 73.008 0 0 1 10.567 9.958 68.287 68.287 0 0 1 8.575 12.274 73.72 73.72 0 0 1 8.613 29.527 39.42 39.42 0 0 1 0 7.76 62.842 62.842 0 0 1-1.487 7.643c-.582 2.587-1.19 5.031-1.953 7.527a38.914 38.914 0 0 1-1.293 3.75l-.634 1.863-.414.996-.53 1.203a11.278 11.278 0 0 1-21.042-.905l-.104-.337a169.076 169.076 0 0 0-16.464-35.682 141.98 141.98 0 0 0-24.56-29.94 139.51 139.51 0 0 0-37.824-24.949c-.192-.085 1.14 2.07 1.727 3.207a137.545 137.545 0 0 1 12.61 36.407 149.948 149.948 0 0 1 2.535 38.205 158.445 158.445 0 0 1-2.328 18.96 171.604 171.604 0 0 1-2.07 9.39 94.741 94.741 0 0 1-1.292 4.707l-.75 2.38-.401 1.293-.505 1.423a11.317 11.317 0 0 1-21.65-1.06l-.078-.324a106.608 106.608 0 0 0-11.303-28.375 113.23 113.23 0 0 0-18.934-24.289 136.782 136.782 0 0 0-24.755-19.076c-1.29-.785-2.592-1.55-3.906-2.295.152.004.438-.325.473-.05.21 1.658.357 3.328.523 4.97.31 3.88.479 7.682.427 11.485a124.767 124.767 0 0 1-2.328 22.31c-.724 3.62-1.59 7.19-2.664 10.695a80.626 80.626 0 0 1-3.686 10.334Z" fill="#FFF"/><path d="M58.678 132.261c.556-6.977.556-13.988 0-20.965a143.636 143.636 0 0 0-3.065-20.473 128.46 128.46 0 0 0-2.69-9.88c-1.035-3.234-2.29-6.377-3.35-9.572a122.265 122.265 0 0 0-1.655-4.772c-.582-1.578-1.294-3.117-1.992-4.63-1.371-3.065-3-6.001-4.656-8.911l-.078-.13a4.398 4.398 0 0 1 1.643-6 4.346 4.346 0 0 1 3.479-.388c3.013.918 5.639 1.914 8.393 3.013 2.755 1.1 5.368 2.263 7.993 3.492a166.463 166.463 0 0 1 15.339 8.252 151.577 151.577 0 0 1 27.638 21.3 128.724 128.724 0 0 1 21.521 27.613 122.309 122.309 0 0 1 8.564 18.22c.021-.036-.276-.342-.26-.284.155-.758.305-1.516.452-2.274 1.04-5.64 1.74-11.336 2.095-17.059.742-11.436.012-22.92-2.173-34.17a121.572 121.572 0 0 0-11.161-32.229 128.453 128.453 0 0 0-19.607-28 4.41 4.41 0 0 1 3.88-7.346c2.044.258 3.738.582 5.561.957 1.824.375 3.57.776 5.329 1.293 3.518.862 6.967 1.892 10.347 3.091a155.302 155.302 0 0 1 55.367 32.863 158.173 158.173 0 0 1 27.34 33.342 184.053 184.053 0 0 1 13.569 26.87c1.623 3.997-.567 1.828-.17-.266.763-4.165 1.203-8.355 1.591-12.571a61.834 61.834 0 0 0-3.182-25.117 67.253 67.253 0 0 0-13.204-22.258 99.78 99.78 0 0 0-20.306-17.304 97.452 97.452 0 0 1 22.569 15.08 70.072 70.072 0 0 1 16.529 22.258 69.36 69.36 0 0 1 6.233 27.586 52.638 52.638 0 0 1-.271 7.14c-.272 2.366-.724 4.707-1.216 7.035a81.065 81.065 0 0 1-2.91 10.334c-.427 1.164-.815 2.198-1.41 3.505a4.41 4.41 0 0 1-8.186-.401v-.09a175.18 175.18 0 0 0-17.15-37.158 149.314 149.314 0 0 0-25.866-31.492 146.404 146.404 0 0 0-52.25-31.04 133.923 133.923 0 0 0-7.46-2.295c-.758-.209-2.464-3.403.174.07a137.532 137.532 0 0 1 12.575 19.892 130.625 130.625 0 0 1 11.976 34.57 143.559 143.559 0 0 1 2.315 36.433 150.025 150.025 0 0 1-2.237 18.107 143.046 143.046 0 0 1-1.953 8.936 142.411 142.411 0 0 1-1.229 4.45 72.945 72.945 0 0 1-1.474 4.526 4.423 4.423 0 0 1-8.432-.453v-.103a113.98 113.98 0 0 0-12.054-30.212 119.684 119.684 0 0 0-20.047-25.711 143.559 143.559 0 0 0-25.97-20.073 156.57 156.57 0 0 0-19.21-9.86c-.006.015.012-.069.006-.053a122.865 122.865 0 0 1 3.917 9.46 64.032 64.032 0 0 1 2.587 10.632 127.221 127.221 0 0 1 1.41 10.773c.601 7.153.601 14.343 0 21.495-.276 3.561-.707 7.092-1.294 10.593a90.7 90.7 0 0 1-2.224 10.359Z" fill="#E911BD"/></svg>
